X:1
T:The Clare Jig $1(J-79)
M:6/8
K:G
|:"G"G3 GAB|"C"AGE "D"GED|"G"GFG "Am"AGE|"C"GED "D"DEF|
"G"~G3 GAB|"C"AGE "C/B"GAB|"Am"cBA "C"BGE|[1"D"DED DEF:|2"D"DED D3|]
|:"C"cBA "G"BAG|"D"ABA AGE|"C"cBA "G"BGE|"D"DED D3|
"C"cBA "G"BAG|"Am"ABA ABc|"D"dcA "C"GEA|[1"D"DED D3:|[2"D"D2 B cAF||
["Trans""D"D6|]
